src/actions/24/configure.svg

<?xml version="1.0" encoding="UTF-8" standalone="no"?>
<svg
   version="1.1"
   viewBox="0 0 24 24"
   id="svg1"
   sodipodi:docname="configure.svg"
   inkscape:version="1.3.2 (091e20ef0f, 2023-11-25)"
   xmlns:inkscape="http://www.inkscape.org/namespaces/inkscape"
   xmlns:sodipodi="http://sodipodi.sourceforge.net/DTD/sodipodi-0.dtd"
   xmlns="http://www.w3.org/2000/svg"
   xmlns:svg="http://www.w3.org/2000/svg">
  <sodipodi:namedview
     id="namedview1"
     pagecolor="#ffffff"
     bordercolor="#111111"
     borderopacity="1"
     inkscape:showpageshadow="0"
     inkscape:pageopacity="0"
     inkscape:pagecheckerboard="1"
     inkscape:deskcolor="#d1d1d1"
     inkscape:zoom="33.458333"
     inkscape:cx="12"
     inkscape:cy="12"
     inkscape:window-width="1920"
     inkscape:window-height="1011"
     inkscape:window-x="0"
     inkscape:window-y="0"
     inkscape:window-maximized="1"
     inkscape:current-layer="svg1" />
  <defs
     id="defs1">
    <style
       id="current-color-scheme"
       type="text/css">.ColorScheme-Text {
        color:#363636;
      }</style>
  </defs>
  <path
     d="m 11.999574,8.6288866 a 3.3712082,3.3712082 0 0 0 -3.3712078,3.3712084 3.3712082,3.3712082 0 0 0 3.3712078,3.371208 3.3712082,3.3712082 0 0 0 3.371208,-3.371208 3.3712082,3.3712082 0 0 0 -3.371208,-3.3712084 z m 0,1.1237364 a 2.2474721,2.2474721 0 0 1 2.247472,2.247472 2.2474721,2.2474721 0 0 1 -2.247472,2.247472 2.2474721,2.2474721 0 0 1 -2.2474717,-2.247472 2.2474721,2.2474721 0 0 1 2.2474717,-2.247472 z"
     fill="#363636"
     style="stroke-width:1.12374;paint-order:fill markers stroke"
     id="path1-5" />
  <path
     d="m 11.347695,3.0102063 c -0.250447,0 -0.601738,0.069307 -0.89328,0.3138595 -0.291542,0.2445474 -0.430919,0.6044801 -0.4652944,0.8625573 L 10.011067,4.0724965 9.6269742,5.6703368 C 9.4703367,5.7278395 9.3228351,5.7897674 9.1748503,5.8568994 L 7.7833279,5.005321 a 1.1238484,1.1238484 0 0 0 -0.00877,-0.00439 C 7.5738747,4.8803953 7.2416085,4.7551212 6.8834738,4.7990031 6.5253391,4.8428895 6.2597778,5.0292791 6.1065114,5.1699259 A 1.1238484,1.1238484 0 0 0 6.0779798,5.196264 L 5.1561678,6.1027145 A 1.1238484,1.1238484 0 0 0 5.114466,6.1444152 C 4.9406128,6.3342704 4.7660629,6.656895 4.7457457,6.9959936 4.7254286,7.3350922 4.8377572,7.6116886 4.9410847,7.7927 a 1.1238484,1.1238484 0 0 0 0.021947,0.035117 L 5.8277799,9.2214742 C 5.7656036,9.3573002 5.716384,9.5016216 5.6587813,9.6538541 L 4.0763361,10.026969 a 1.1238484,1.1238484 0 0 0 -0.015361,0.0022 C 3.879053,10.074761 3.5669016,10.181055 3.3169378,10.48134 3.0669739,10.781625 3.0096634,11.148525 3.0096634,11.372429 v 1.290499 c 0,0.250132 0.069717,0.599378 0.3138595,0.891088 0.2441429,0.291711 0.6020079,0.430773 0.860366,0.465295 l -0.1119353,-0.01976 1.5999754,0.381891 c 0.052613,0.140793 0.1050243,0.276158 0.1646048,0.408231 l -0.8669399,1.413435 c -0.1156998,0.188113 -0.2409402,0.481577 -0.2107005,0.844993 0.03024,0.363416 0.2389737,0.698918 0.4411563,0.884503 l 0.8801101,0.88011 c 0.1735161,0.173752 0.4597991,0.36472 0.8142704,0.408231 0.3544713,0.04351 0.685243,-0.07514 0.891089,-0.201924 l 1.4069175,-0.86694 c 0.1395344,0.06459 0.2792709,0.125173 0.4257949,0.179977 l 0.3928694,1.608741 -0.021947,-0.11852 c 0.034814,0.261358 0.189473,0.643574 0.493826,0.882312 0.304353,0.238738 0.636439,0.285328 0.864749,0.285328 h 1.312523 c 0.228321,0 0.576174,-0.05657 0.873525,-0.296295 0.297352,-0.239727 0.427762,-0.578399 0.47188,-0.798909 l -0.0088,0.04608 0.392869,-1.606605 c 0.146749,-0.05547 0.287744,-0.115745 0.425795,-0.179978 l 1.395905,0.864749 a 1.1238484,1.1238484 0 0 0 0.0022,0 c 0.205936,0.126903 0.536629,0.245424 0.891089,0.201924 0.35446,-0.04351 0.640743,-0.234513 0.814271,-0.408231 a 1.1238484,1.1238484 0 0 0 0.0044,-0.0022 l 0.875728,-0.886695 c 0.189731,-0.174089 0.409646,-0.509883 0.441156,-0.880109 0.03151,-0.370226 -0.09326,-0.647575 -0.190945,-0.818664 a 1.1238484,1.1238484 0 0 0 -0.01976,-0.03292 l -0.864748,-1.400288 c 0.06043,-0.131837 0.113329,-0.267123 0.166807,-0.408231 l 1.604358,-0.384093 -0.111935,0.01976 c 0.261662,-0.03497 0.641833,-0.189372 0.88011,-0.493826 0.238277,-0.304454 0.285328,-0.634507 0.285328,-0.862558 v -1.290498 c 0,-0.203048 -0.0345,-0.545877 -0.278743,-0.860355 -0.244244,-0.314489 -0.576499,-0.435965 -0.763792,-0.482858 a 1.1238484,1.1238484 0 0 0 -0.01536,-0.0022 L 18.349211,9.6537081 C 18.289945,9.4998124 18.242445,9.3539964 18.180213,9.2191369 L 19.027408,7.8430097 C 19.145423,7.6592114 19.283025,7.3709394 19.260055,6.9958138 19.237086,6.6206882 19.018924,6.2704871 18.816708,6.0849695 L 17.92781,5.2114445 C 17.765295,5.0487837 17.473866,4.8471068 17.115731,4.8032137 c -0.358123,-0.043894 -0.659667,0.07119 -0.842802,0.1689987 a 1.1238484,1.1238484 0 0 0 -0.05706,0.032922 l -1.38714,0.8515784 C 14.687821,5.7916407 14.540735,5.735518 14.38757,5.6767353 L 14.010062,4.1272157 C 13.969158,3.9090985 13.849221,3.5698763 13.549139,3.3195304 13.249068,3.0691844 12.888641,3.0100647 12.660241,3.0100647 h -1.312524 z m 0,1.123736 h 1.312524 c 0.147917,0 0.217488,0.060357 0.243626,0.1997217 l 0.522357,2.1530783 c 0.56561,0.1393769 1.079394,0.3728219 1.514459,0.61674 L 16.80404,5.962216 c 0.130489,-0.069695 0.22477,-0.060639 0.329221,0.043895 l 0.921812,0.9064504 c 0.104452,0.095823 0.104654,0.2006768 0.02634,0.3226359 l -1.147897,1.8633791 c 0.208802,0.3920041 0.47079,0.9329376 0.601379,1.5165946 l 2.13993,0.504805 c 0.139198,0.03485 0.190946,0.0956 0.190946,0.252402 v 1.290499 c 0,0.148075 -0.06046,0.226186 -0.190946,0.243626 l -2.148695,0.513581 c -0.13059,0.548788 -0.366507,1.080888 -0.610155,1.490299 l 1.156661,1.872144 c 0.0696,0.121903 0.06933,0.218016 -0.03512,0.31386 L 17.124485,18.0204 c -0.104451,0.104564 -0.209566,0.111373 -0.322636,0.0417 L 14.93184,16.905441 c -0.435021,0.270079 -0.931353,0.486061 -1.505582,0.625517 l -0.522357,2.144312 c -0.02614,0.130634 -0.09571,0.190945 -0.243626,0.190945 h -1.312524 c -0.147917,0 -0.226219,-0.06031 -0.243626,-0.190945 L 10.581768,17.530958 C 10.033576,17.400234 9.5024643,17.17552 9.0761863,16.905441 l -1.8787744,1.156661 c -0.1131265,0.06967 -0.218207,0.06286 -0.3226358,-0.0417 L 5.9617405,17.105174 C 5.857323,17.009331 5.8570083,16.90452 5.9266238,16.791315 l 1.1566615,-1.88091 C 6.8396481,14.492353 6.6124286,13.968962 6.4819067,13.420106 L 4.333211,12.906525 C 4.2026744,12.889085 4.133486,12.810974 4.133486,12.662899 v -1.290498 c 0,-0.156795 0.060491,-0.217544 0.1997216,-0.252402 L 6.4752733,10.615194 C 6.6057952,10.031548 6.8569278,9.4905584 7.0744494,9.0985993 L 5.9177878,7.2352202 C 5.8481724,7.1132611 5.8484084,7.0083266 5.9441282,6.9038079 L 6.8659401,5.9973575 C 6.9703577,5.9015342 7.0668304,5.8838376 7.1973524,5.9622407 L 9.058484,7.1035071 c 0.3915771,-0.243907 0.975077,-0.4861395 1.531989,-0.6255165 l 0.513581,-2.1443132 c 0.01741,-0.1306567 0.09571,-0.1997216 0.243626,-0.1997216 z"
     color="#000000"
     fill="#363636"
     stroke-linecap="round"
     stroke-linejoin="round"
     style="stroke-width:1.12374;-inkscape-stroke:none"
     id="path2" />
</svg>

<?xml version="1.0" encoding="UTF-8"?>
<svg id="svg1" version="1.1" viewBox="0 0 24 24" xmlns="http://www.w3.org/2000/svg">
 <defs id="defs1">
  <style id="current-color-scheme" type="text/css">.ColorScheme-Text {
        color:#363636;
      }</style>
 </defs>
 <path id="path1-5" d="m12 8.6289a3.3712 3.3712 0 0 0-3.3712 3.3712 3.3712 3.3712 0 0 0 3.3712 3.3712 3.3712 3.3712 0 0 0 3.3712-3.3712 3.3712 3.3712 0 0 0-3.3712-3.3712zm0 1.1237a2.2475 2.2475 0 0 1 2.2475 2.2475 2.2475 2.2475 0 0 1-2.2475 2.2475 2.2475 2.2475 0 0 1-2.2475-2.2475 2.2475 2.2475 0 0 1 2.2475-2.2475z" fill="#363636" stroke-width="1.1237" style="paint-order:fill markers stroke"/>
 <path id="path2" d="m11.348 3.0102c-0.25045 0-0.60174 0.069307-0.89328 0.31386-0.29154 0.24455-0.43092 0.60448-0.46529 0.86256l0.021946-0.11413-0.38409 1.5978c-0.15664 0.057503-0.30414 0.11943-0.45212 0.18656l-1.3915-0.85158a1.1238 1.1238 0 0 0-0.00877-0.00439c-0.20068-0.12054-0.53295-0.24581-0.89108-0.20193-0.35813 0.043886-0.6237 0.23028-0.77696 0.37092a1.1238 1.1238 0 0 0-0.028532 0.026338l-0.92181 0.90645a1.1238 1.1238 0 0 0-0.041702 0.041701c-0.17385 0.18986-0.3484 0.51248-0.36872 0.85158-0.020317 0.3391 0.092012 0.6157 0.19534 0.79671a1.1238 1.1238 0 0 0 0.021947 0.035117l0.86475 1.3937c-0.062176 0.13583-0.1114 0.28015-0.169 0.43238l-1.5824 0.37311a1.1238 1.1238 0 0 0-0.015361 0.0022c-0.18192 0.045592-0.49407 0.15189-0.74404 0.45217-0.24996 0.30028-0.30727 0.66718-0.30727 0.89109v1.2905c0 0.25013 0.069717 0.59938 0.31386 0.89109 0.24414 0.29171 0.60201 0.43077 0.86037 0.4653l-0.11194-0.01976 1.6 0.38189c0.052613 0.14079 0.10502 0.27616 0.1646 0.40823l-0.86694 1.4134c-0.1157 0.18811-0.24094 0.48158-0.2107 0.84499 0.03024 0.36342 0.23897 0.69892 0.44116 0.8845l0.88011 0.88011c0.17352 0.17375 0.4598 0.36472 0.81427 0.40823 0.35447 0.04351 0.68524-0.07514 0.89109-0.20192l1.4069-0.86694c0.13953 0.06459 0.27927 0.12517 0.42579 0.17998l0.39287 1.6087-0.021947-0.11852c0.034814 0.26136 0.18947 0.64357 0.49383 0.88231s0.63644 0.28533 0.86475 0.28533h1.3125c0.22832 0 0.57617-0.05657 0.87352-0.2963 0.29735-0.23973 0.42776-0.5784 0.47188-0.79891l-0.0088 0.04608 0.39287-1.6066c0.14675-0.05547 0.28774-0.11574 0.4258-0.17998l1.3959 0.86475a1.1238 1.1238 0 0 0 0.0022 0c0.20594 0.1269 0.53663 0.24542 0.89109 0.20192 0.35446-0.04351 0.64074-0.23451 0.81427-0.40823a1.1238 1.1238 0 0 0 0.0044-0.0022l0.87573-0.8867c0.18973-0.17409 0.40965-0.50988 0.44116-0.88011s-0.09326-0.64758-0.19094-0.81866a1.1238 1.1238 0 0 0-0.01976-0.03292l-0.86475-1.4003c0.06043-0.13184 0.11333-0.26712 0.16681-0.40823l1.6044-0.38409-0.11194 0.01976c0.26166-0.03497 0.64183-0.18937 0.88011-0.49383s0.28533-0.63451 0.28533-0.86256v-1.2905c0-0.20305-0.0345-0.54588-0.27874-0.86036-0.24424-0.31449-0.5765-0.43596-0.76379-0.48286a1.1238 1.1238 0 0 0-0.01536-0.0022l-1.5824-0.37321c-0.059266-0.1539-0.10677-0.29971-0.169-0.43457l0.8472-1.3761c0.11802-0.1838 0.25562-0.47207 0.23265-0.8472-0.022969-0.37513-0.24113-0.72533-0.44335-0.91084l-0.8889-0.87352c-0.16252-0.16266-0.45394-0.36434-0.81208-0.40823-0.35812-0.043894-0.65967 0.07119-0.8428 0.169a1.1238 1.1238 0 0 0-0.05706 0.032922l-1.3871 0.85158c-0.14091-0.065072-0.28799-0.12119-0.44116-0.17998l-0.37751-1.5495c-0.040904-0.21812-0.16084-0.55734-0.46092-0.80769-0.30007-0.25035-0.6605-0.30947-0.8889-0.30947h-1.3125zm0 1.1237h1.3125c0.14792 0 0.21749 0.060357 0.24363 0.19972l0.52236 2.1531c0.56561 0.13938 1.0794 0.37282 1.5145 0.61674l1.8634-1.1413c0.13049-0.069695 0.22477-0.060639 0.32922 0.043895l0.92181 0.90645c0.10445 0.095823 0.10465 0.20068 0.02634 0.32264l-1.1479 1.8634c0.2088 0.392 0.47079 0.93294 0.60138 1.5166l2.1399 0.5048c0.1392 0.03485 0.19095 0.0956 0.19095 0.2524v1.2905c0 0.14808-0.06046 0.22619-0.19095 0.24363l-2.1487 0.51358c-0.13059 0.54879-0.36651 1.0809-0.61016 1.4903l1.1567 1.8721c0.0696 0.1219 0.06933 0.21802-0.03512 0.31386l-0.91303 0.92401c-0.10445 0.10456-0.20957 0.11137-0.32264 0.0417l-1.87-1.1567c-0.43502 0.27008-0.93135 0.48606-1.5056 0.62552l-0.52236 2.1443c-0.02614 0.13063-0.09571 0.19094-0.24363 0.19094h-1.3125c-0.14792 0-0.22622-0.06031-0.24363-0.19094l-0.52236-2.1443c-0.54819-0.13072-1.0793-0.35544-1.5056-0.62552l-1.8788 1.1567c-0.11313 0.06967-0.21821 0.06286-0.32264-0.0417l-0.91304-0.91523c-0.10442-0.095843-0.10473-0.20065-0.035117-0.31386l1.1567-1.8809c-0.24364-0.41805-0.47086-0.94144-0.60138-1.4903l-2.1487-0.51358c-0.13054-0.01744-0.19972-0.095551-0.19972-0.24363v-1.2905c0-0.1568 0.060491-0.21754 0.19972-0.2524l2.1421-0.5048c0.13052-0.58365 0.38165-1.1246 0.59918-1.5166l-1.1567-1.8634c-0.069615-0.12196-0.069379-0.22689 0.02634-0.33141l0.92181-0.90645c0.10442-0.095823 0.20089-0.11352 0.33141-0.035117l1.8611 1.1413c0.39158-0.24391 0.97508-0.48614 1.532-0.62552l0.51358-2.1443c0.01741-0.13066 0.09571-0.19972 0.24363-0.19972z" color="#000000" fill="#363636" stroke-linecap="round" stroke-linejoin="round" stroke-width="1.1237" style="-inkscape-stroke:none"/>
</svg>
